actions/22x22-light/run-build-prune.svg

<svg viewBox="0 0 22 22" xmlns="http://www.w3.org/2000/svg"><path d="m9.84375 3c-.2013728 0-.3264148.096547-.375.2910156-.0902662.3471285-.1916277.9930294-.3027344 1.9375-.3264158.1043303-.6416903.2367925-.9472656.3964844l-1.4375-1.1152344c-.0902662-.0694257-.1812182-.1035156-.2714844-.1035156-.1527876 0-.4808789.2475488-.984375.7441406-.503496.4965919-.8447304.8711357-1.0253906 1.1210938-.0625215.0902662-.09375.1688555-.09375.2382812 0 .083362.0340899.1667659.1035156.25.4652672.5625654.8374038 1.0415307 1.1152344 1.4375-.1736281.3193838-.3090796.6396007-.40625.9589844l-1.9375.2910156c-.0763299.0139363-.1416484.060261-.1972656.1367188-.0556173.0763299-.0839844.1550471-.0839844.2382812v2.3125004c0 .090394.0283671.173216.0839844.246093.0556172.073006.1284838.115098.21875.128907l1.90625.28125c.0971704.340224.2382168.684121.4257812 1.03125-.1249151.173628-.3125419.418315-.5625.734375-.249958.316059-.4271754.547476-.53125.693359-.0556172.076586-.0820312.156872-.0820312.240234 0 .090267.0236804.168856.0722656.238282.2707985.375128.8437051.958445 1.71875 1.75.0764578.076457.1625952.115234.2597656.115234.1042025 0 .1922931-.031356.2617188-.09375l1.46875-1.115234c.2848626.145883.5972758.275484.9375.386718l.2910156 1.916016c.0070321.090266.0462628.16554.1191406.224609.0728778.059198.158689.087891.2558594.087891h2.3125c.201629 0 .326287-.096547.375-.291016.090138-.347256.191628-.993029.302734-1.9375.326416-.104202.641819-.236792.947266-.396484l1.4375 1.125c.09717.062394.18825.09375.271484.09375.15266 0 .4786-.247095.978516-.740234.500172-.493012.843941-.86801 1.03125-1.125.062521-.069426.09375-.148015.09375-.238282 0-.090266-.033962-.178612-.103516-.261718-.499916-.611151-.872052-1.090244-1.115234-1.4375.138851-.25699.274303-.572265.40625-.947266l1.927734-.291016c.083234-.013936.151542-.060261.207032-.136718.055489-.076458.083984-.155048.083984-.238282v-2.3124996c.000128-.0902662-.028239-.1730881-.083984-.2460938-.055745-.0730056-.128484-.1150978-.21875-.1289062l-1.90625-.2929688c-.104203-.33332-.245249-.6722749-.425782-1.0195312.124915-.1736282.312542-.4183155.5625-.734375s.427048-.547476.53125-.6933594c.055618-.0764578.082032-.1568724.082032-.2402344 0-.0971704-.023553-.1728983-.072266-.2285156-.249958-.3542884-.822865-.9450246-1.71875-1.7714844-.083106-.0694257-.169627-.1035156-.259766-.1035156-.104202 0-.187478.0313564-.25.09375l-1.480468 1.1152344c-.284863-.1458835-.597276-.2756121-.9375-.3867188l-.291016-1.9160156c-.006904-.0902662-.046263-.16554-.119141-.2246094-.073005-.0590693-.158433-.0878906-.255859-.0878906zm1.15625 5.0996094c.544326 0 1.046158.1340885 1.505859.4023437.459606.2682553.823542.632191 1.091797 1.0917969.26816.459606.402344.961582.402344 1.505859 0 .54423-.134136 1.046206-.402344 1.50586-.268255.459606-.632191.823589-1.091797 1.091797-.459606.268255-.961581.402343-1.505859.402343s-1.0462055-.134088-1.5058594-.402343c-.4596538-.268256-.8235416-.632239-1.0917968-1.091797-.2682074-.459702-.4023438-.961582-.4023438-1.50586 0-.544229.1340405-1.046205.4023438-1.505859.2682552-.4596538.632143-.8235896 1.0917968-1.0917969.4596059-.2682552.9615814-.4023437 1.5058594-.4023437zm-.882812 1.5117187c-.070337 0-.1302082.024739-.179688.0742188l-.3515625.3515621c-.0494798.04948-.0742187.109352-.0742187.179688-.0000001.067699.0247389.126349.0742187.175781l.7070315.707031-.7070315.707032c-.0494798.049431-.0742187.108082-.0742187.175781-.0000001.070288.0247389.130256.0742187.179687l.3515625.351563c.0494798.04948.109351.074219.179688.074219.067699 0 .126301-.024739.175781-.074219l.707031-.707031.707031.707031c.049384.04948.108082.074219.175781.074219.070337 0 .130208-.024739.179688-.074219l.351562-.351563c.04948-.049431.074219-.109399.074219-.179687 0-.067699-.024739-.12635-.074219-.175781l-.707031-.707032.707031-.707031c.04948-.049432.074219-.108082.074219-.175781 0-.070336-.024739-.130208-.074219-.179688l-.351562-.3515621c-.04948-.0494798-.109351-.0742188-.179688-.0742188-.067699 0-.126397.024739-.175781.0742188l-.707031.7070311-.707031-.7070311c-.04948-.0494798-.108082-.0742188-.175781-.0742188z" fill="#4d4d4d"/></svg>

<svg xmlns="http://www.w3.org/2000/svg" viewBox="0 0 22 22">
  <defs id="defs3051">
    <style type="text/css" id="current-color-scheme">
      .ColorScheme-Text {
        color:#4d4d4d
      }
      </style>
  </defs>
 <path 
     style="fill:currentColor;fill-opacity:1;stroke:none"      
	 class="ColorScheme-Text"
        d="M 9.84375 3 C 9.6423772 3 9.5173352 3.096547 9.46875 3.2910156 C 9.3784838 3.6381441 9.2771223 4.284045 9.1660156 5.2285156 C 8.8395998 5.3328459 8.5243253 5.4653081 8.21875 5.625 L 6.78125 4.5097656 C 6.6909838 4.4403399 6.6000318 4.40625 6.5097656 4.40625 C 6.356978 4.40625 6.0288867 4.6537988 5.5253906 5.1503906 C 5.0218946 5.6469825 4.6806602 6.0215263 4.5 6.2714844 C 4.4374785 6.3617506 4.40625 6.4403399 4.40625 6.5097656 C 4.40625 6.5931276 4.4403399 6.6765315 4.5097656 6.7597656 C 4.9750328 7.322331 5.3471694 7.8012963 5.625 8.1972656 C 5.4513719 8.5166494 5.3159204 8.8368663 5.21875 9.15625 L 3.28125 9.4472656 C 3.2049201 9.4612019 3.1396016 9.5075266 3.0839844 9.5839844 C 3.0283671 9.6603143 3 9.7390315 3 9.8222656 L 3 12.134766 C 3 12.22516 3.0283671 12.307982 3.0839844 12.380859 C 3.1396016 12.453865 3.2124682 12.495957 3.3027344 12.509766 L 5.2089844 12.791016 C 5.3061548 13.13124 5.4472012 13.475137 5.6347656 13.822266 C 5.5098505 13.995894 5.3222237 14.240581 5.0722656 14.556641 C 4.8223076 14.8727 4.6450902 15.104117 4.5410156 15.25 C 4.4853984 15.326586 4.4589844 15.406872 4.4589844 15.490234 C 4.4589844 15.580501 4.4826648 15.65909 4.53125 15.728516 C 4.8020485 16.103644 5.3749551 16.686961 6.25 17.478516 C 6.3264578 17.554973 6.4125952 17.59375 6.5097656 17.59375 C 6.6139681 17.59375 6.7020587 17.562394 6.7714844 17.5 L 8.2402344 16.384766 C 8.525097 16.530649 8.8375102 16.66025 9.1777344 16.771484 L 9.46875 18.6875 C 9.4757821 18.777766 9.5150128 18.85304 9.5878906 18.912109 C 9.6607684 18.971307 9.7465796 19 9.84375 19 L 12.15625 19 C 12.357879 19 12.482537 18.903453 12.53125 18.708984 C 12.621388 18.361728 12.722878 17.715955 12.833984 16.771484 C 13.1604 16.667282 13.475803 16.534692 13.78125 16.375 L 15.21875 17.5 C 15.31592 17.562394 15.407 17.59375 15.490234 17.59375 C 15.642894 17.59375 15.968834 17.346655 16.46875 16.853516 C 16.968922 16.360504 17.312691 15.985506 17.5 15.728516 C 17.562521 15.65909 17.59375 15.580501 17.59375 15.490234 C 17.59375 15.399968 17.559788 15.311622 17.490234 15.228516 C 16.990318 14.617365 16.618182 14.138272 16.375 13.791016 C 16.513851 13.534026 16.649303 13.218751 16.78125 12.84375 L 18.708984 12.552734 C 18.792218 12.538798 18.860526 12.492473 18.916016 12.416016 C 18.971505 12.339558 19 12.260968 19 12.177734 L 19 9.8652344 C 19.000128 9.7749682 18.971761 9.6921463 18.916016 9.6191406 C 18.860271 9.546135 18.787532 9.5040428 18.697266 9.4902344 L 16.791016 9.1972656 C 16.686813 8.8639456 16.545767 8.5249907 16.365234 8.1777344 C 16.490149 8.0041062 16.677776 7.7594189 16.927734 7.4433594 C 17.177692 7.1272999 17.354782 6.8958834 17.458984 6.75 C 17.514602 6.6735422 17.541016 6.5931276 17.541016 6.5097656 C 17.541016 6.4125952 17.517463 6.3368673 17.46875 6.28125 C 17.218792 5.9269616 16.645885 5.3362254 15.75 4.5097656 C 15.666894 4.4403399 15.580373 4.40625 15.490234 4.40625 C 15.386032 4.40625 15.302756 4.4376064 15.240234 4.5 L 13.759766 5.6152344 C 13.474903 5.4693509 13.16249 5.3396223 12.822266 5.2285156 L 12.53125 3.3125 C 12.524346 3.2222338 12.484987 3.14696 12.412109 3.0878906 C 12.339104 3.0288213 12.253676 3 12.15625 3 L 9.84375 3 z M 11 8.0996094 C 11.544326 8.0996094 12.046158 8.2336979 12.505859 8.5019531 C 12.965465 8.7702084 13.329401 9.1341441 13.597656 9.59375 C 13.865816 10.053356 14 10.555332 14 11.099609 C 14 11.643839 13.865864 12.145815 13.597656 12.605469 C 13.329401 13.065075 12.965465 13.429058 12.505859 13.697266 C 12.046253 13.965521 11.544278 14.099609 11 14.099609 C 10.455722 14.099609 9.9537945 13.965521 9.4941406 13.697266 C 9.0344868 13.42901 8.670599 13.065027 8.4023438 12.605469 C 8.1341364 12.145767 8 11.643887 8 11.099609 C 8 10.55538 8.1340405 10.053404 8.4023438 9.59375 C 8.670599 9.1340962 9.0344868 8.7701604 9.4941406 8.5019531 C 9.9537465 8.2336979 10.455722 8.0996094 11 8.0996094 z M 10.117188 9.6113281 C 10.046851 9.6113281 9.9869798 9.6360671 9.9375 9.6855469 L 9.5859375 10.037109 C 9.5364577 10.086589 9.5117188 10.146461 9.5117188 10.216797 C 9.5117187 10.284496 9.5364577 10.343146 9.5859375 10.392578 L 10.292969 11.099609 L 9.5859375 11.806641 C 9.5364577 11.856072 9.5117188 11.914723 9.5117188 11.982422 C 9.5117187 12.05271 9.5364577 12.112678 9.5859375 12.162109 L 9.9375 12.513672 C 9.9869798 12.563152 10.046851 12.587891 10.117188 12.587891 C 10.184887 12.587891 10.243489 12.563152 10.292969 12.513672 L 11 11.806641 L 11.707031 12.513672 C 11.756415 12.563152 11.815113 12.587891 11.882812 12.587891 C 11.953149 12.587891 12.01302 12.563152 12.0625 12.513672 L 12.414062 12.162109 C 12.463542 12.112678 12.488281 12.05271 12.488281 11.982422 C 12.488281 11.914723 12.463542 11.856072 12.414062 11.806641 L 11.707031 11.099609 L 12.414062 10.392578 C 12.463542 10.343146 12.488281 10.284496 12.488281 10.216797 C 12.488281 10.146461 12.463542 10.086589 12.414062 10.037109 L 12.0625 9.6855469 C 12.01302 9.6360671 11.953149 9.6113281 11.882812 9.6113281 C 11.815113 9.6113281 11.756415 9.6360671 11.707031 9.6855469 L 11 10.392578 L 10.292969 9.6855469 C 10.243489 9.6360671 10.184887 9.6113281 10.117188 9.6113281 z "
     />
</svg>
